X: 919
T: Spotted Pony
B: jims roots
M:C|
L:1/8
R: reel
Q: 1/4=100
K:D
V:1 
|:"D"f2a2 f4 | "G"efed BcdB | "D"ABde fede | f"A7"a2f edBA |
"D"f2a2 f4 | "G"efed BcdB | "D"ABAB dBAG | "A7"FDEC "D"D4:|
|:"D"D2DD "A7"E2EE | "D"FDF2 "G"G4 | "D"ABde fede | fa2 f"A7"e4 |
"D"D2DD "A7"E2EE | "D"FDF2 "G"G4 | "D"ABAB dBAG | "A7"FDE2 "D"D4:|
% abcbook-tune_id 6298c2873910d280a5529340


% abcbook-boost 0
% abcbook-tablature 
% abcbook-transpose 
% abcbook-lastupdated 1654178440770
% abcbook-soundfonts 
% abcbook-repeats 1


